svgs/magisk.svg

<svg width="24" height="24" viewBox="0 0 24 24" fill="none" xmlns="http://www.w3.org/2000/svg">
<path d="M15.0793 2.33266C14.1784 2.9505 13.7258 3.68602 13.6001 4.69227C13.6911 5.81488 13.4477 6.65963 13.1549 7.67599C12.8407 8.76665 12.4695 10.0549 12.3935 12.0963C12.2268 12.1615 12.2064 10.0364 12.1871 8.02208C12.1748 6.74035 12.1628 5.50341 12.114 4.90414C11.988 3.36306 12.9285 2.41652 13.2747 2.13335C13.6207 1.85017 14.2829 2.06641 15.0793 2.33266Z" fill="black"/>
<path d="M8.22801 2.55266C8.85742 2.48986 9.38564 4.80111 9.44508 6.16056C9.48046 6.97105 10.0511 8.19328 10.3756 8.88906C10.5481 9.25863 10.6512 9.47968 10.5681 9.41158C9.31113 8.38113 8.46982 7.12919 7.54218 5.74876C7.15461 5.172 6.75195 4.57282 6.29761 3.95798C6.0068 3.56463 7.59859 2.61546 8.22801 2.55266Z" fill="black"/>
<path d="M13.4218 9.41195C14.6786 8.38145 15.5199 7.12942 16.4477 5.74891C16.8353 5.17222 17.2379 4.57311 17.6923 3.95835C17.9831 3.565 16.3913 2.61582 15.7618 2.55303C15.1324 2.49022 14.6042 4.80148 14.5447 6.16092C14.5094 6.97189 13.9388 8.19467 13.6142 8.89027C13.4421 9.25943 13.3387 9.48014 13.4218 9.41195Z" fill="black"/>
<path d="M13.6211 9.54809C13.6211 9.54809 15.2663 8.66436 16.6745 8.27927C17.9909 7.91901 18.9777 7.03339 19.0876 6.09776C19.1696 5.40093 18.0699 4.08397 18.0699 4.08397C18.0699 4.08397 17.2983 6.22374 16.2863 7.29325C16.0228 7.57176 15.8463 7.77466 15.7031 7.93926C15.2477 8.46272 15.1293 8.59882 13.6211 9.54809Z" fill="black"/>
<path d="M8.05403 9.0643C9.09913 9.31617 10.0067 9.53491 10.1798 10.3032C10.2559 10.6398 9.49514 11.4332 8.029 11.3727C5.00305 11.2478 4.44437 6.28954 4.68214 6.89462C5.27138 8.39366 6.76698 8.7541 8.05403 9.0643Z" fill="black"/>
<path d="M15.9609 11.373C18.9868 11.2482 19.5459 6.28992 19.3077 6.895C18.7183 8.39375 17.2228 8.75426 15.9359 9.06451C14.8908 9.31646 13.9832 9.53525 13.81 10.3036C13.734 10.6398 14.4947 11.4336 15.9609 11.373Z" fill="black"/>
<path d="M4.58733 8.52033C5.78258 12.4092 8.38678 12.6265 10.8931 10.838C11.1117 10.682 10.7718 10.9323 10.2595 11.3094L10.2586 11.3101C9.62352 11.7776 8.72337 12.4402 8.29085 12.768C7.59741 13.2932 7.35406 13.8449 7.18678 14.2242C7.01945 14.6035 6.92825 14.8103 6.53878 14.6452C3.9169 13.5336 4.37552 7.83064 4.58733 8.52033Z" fill="black"/>
<path d="M15.6986 12.7679C16.3921 13.2932 16.6355 13.845 16.8029 14.2243C16.9702 14.6036 17.0614 14.8103 17.4507 14.6452C20.073 13.5339 19.6143 7.83063 19.4021 8.52032C18.2069 12.4092 15.6027 12.6269 13.0963 10.838C12.8758 10.6806 13.2234 10.9365 13.7434 11.3193C14.3776 11.7863 15.2692 12.4427 15.6986 12.7679Z" fill="black"/>
<path d="M8.93974 14.0648C9.40385 13.5247 9.87316 12.9787 10.5395 12.7867C11.3481 12.554 11.9904 13.2444 12.005 13.2603C12.0908 13.1721 12.7027 12.5791 13.4605 12.7972C14.1268 12.9892 14.5962 13.5353 15.0603 14.0753C15.557 14.6533 16.0478 15.2244 16.7679 15.3469C16.8284 15.3572 16.8906 15.3691 16.9545 15.3815C17.1945 15.4276 17.4595 15.4784 17.7577 15.4642C18.4639 15.4304 19.357 15.0314 20.55 13.3395C20.9029 12.8393 19.6746 16.5608 16.5948 16.606C15.3371 16.6244 14.6987 15.9361 14.1194 15.3116C13.6596 14.816 13.2371 14.3606 12.5718 14.3304C12.1177 14.31 12.0195 13.5823 11.9995 13.345C11.9776 13.5926 11.8758 14.2997 11.4282 14.3199C10.7629 14.35 10.3405 14.8054 9.88067 15.3011C9.30137 15.9256 8.66291 16.6138 7.40523 16.5955C4.32549 16.5503 3.09713 12.8288 3.45003 13.3289C4.64302 15.0208 5.53617 15.4199 6.24233 15.4537C6.54059 15.4679 6.80553 15.417 7.04551 15.3709C7.10945 15.3586 7.17162 15.3466 7.23217 15.3364C7.95222 15.2139 8.44299 14.6428 8.93974 14.0648Z" fill="black"/>
<path d="M10.9523 15.2541C10.978 15.2972 11.9433 16.8955 13.0869 15.316C13.1014 15.2959 13.098 15.3128 13.086 15.3718C13.0423 15.5841 12.8868 16.3423 13.056 17.8856C13.3194 20.2852 11.8108 24 11.8108 24C11.8108 24 10.7047 20.2928 10.9213 17.959C11.0908 16.1321 10.9574 15.285 10.9523 15.2541Z" fill="black"/>
<path d="M13.7784 17.2565C13.943 18.5296 13.8038 19.3 13.5845 20.5139C13.5526 20.6901 13.5191 20.876 13.4845 21.0739C13.3469 21.8632 16.298 18.701 17.4296 16.8158C17.4724 16.7447 17.4403 16.7685 17.3507 16.8352C17.044 17.0632 16.0628 17.7929 15.0899 16.9417C14.5222 16.4453 14.2606 16.1738 13.9601 15.862C13.799 15.6948 13.6268 15.5161 13.3901 15.2848C13.2738 15.1713 13.3413 15.4135 13.4534 15.8159C13.5619 16.2051 13.7122 16.7442 13.7784 17.2565Z" fill="black"/>
<path d="M9.98768 15.9775C10.1488 15.8103 10.321 15.6316 10.5576 15.4003C10.6739 15.2868 10.6064 15.529 10.4943 15.9314C10.3858 16.3206 10.2355 16.8597 10.1693 17.372C10.0047 18.645 10.1439 19.4155 10.3632 20.6293C10.3951 20.8057 10.4287 20.9914 10.4632 21.1894C10.6008 21.9787 7.64977 18.8164 6.5181 16.9312C6.47538 16.8601 6.50737 16.884 6.59703 16.9506C6.90368 17.1787 7.88491 17.9084 8.85782 17.0572C9.42558 16.5608 9.68717 16.2893 9.98768 15.9775Z" fill="black"/>
<path d="M5.91991 4.08397C5.91991 4.08397 6.69153 6.22374 7.70357 7.29325C7.96745 7.57205 8.14411 7.77508 8.28741 7.93977C8.74249 8.46278 8.86114 8.59914 10.3687 9.54809C10.3687 9.54809 8.7235 8.66473 7.31531 8.27927C5.99929 7.91901 5.01247 7.03339 4.90223 6.09776C4.82021 5.40054 5.91991 4.08397 5.91991 4.08397Z" fill="black"/>
<path d="M11.8021 8.02755C11.7827 10.0403 11.7623 12.1616 11.596 12.0967C11.52 10.0553 11.1488 8.76742 10.8346 7.67675C10.5417 6.66032 10.2984 5.81552 10.3894 4.69281C10.2637 3.6861 9.81117 2.9509 8.91013 2.33304C9.70658 2.06679 10.3688 1.85056 10.7148 2.13373C11.061 2.41652 12.0012 3.36344 11.8755 4.90453C11.8264 5.50462 11.8145 6.744 11.8021 8.02755Z" fill="black"/>
</svg>

<svg xmlns="http://www.w3.org/2000/svg" width="24" height="24" fill="none" viewBox="0 0 24 24"><path fill="#000" d="M15.08 2.333c-.902.617-1.354 1.353-1.48 2.36.091 1.122-.152 1.967-.445 2.983-.314 1.09-.685 2.379-.761 4.42-.167.066-.188-2.06-.207-4.074-.012-1.282-.024-2.519-.073-3.118-.126-1.54.814-2.487 1.16-2.77.347-.284 1.009-.068 1.805.199m-6.851.22C8.858 2.49 9.386 4.8 9.445 6.16c.035.81.606 2.032.93 2.728.173.37.276.59.193.523-1.257-1.03-2.098-2.283-3.026-3.663a47.877 47.877 0 0 0-1.244-1.791c-.291-.393 1.3-1.343 1.93-1.405m5.194 6.86c1.257-1.03 2.098-2.283 3.026-3.663.387-.577.79-1.176 1.244-1.79.291-.394-1.3-1.343-1.93-1.406-.63-.063-1.158 2.248-1.217 3.608-.036.81-.606 2.034-.93 2.73-.173.368-.276.59-.193.52"/><path fill="#000" d="M13.621 9.548s1.645-.884 3.053-1.269c1.317-.36 2.304-1.246 2.414-2.181.082-.697-1.018-2.014-1.018-2.014s-.772 2.14-1.784 3.21c-.263.278-.44.48-.583.645-.455.524-.574.66-2.082 1.61m-5.567-.485c1.045.252 1.953.47 2.126 1.24.076.336-.685 1.13-2.151 1.069-3.026-.125-3.585-5.083-3.347-4.478.59 1.499 2.085 1.86 3.372 2.17"/><path fill="#000" d="M15.96 11.373c3.027-.125 3.586-5.083 3.348-4.478-.59 1.499-2.085 1.86-3.372 2.17-1.045.251-1.953.47-2.126 1.239-.076.336.685 1.13 2.15 1.069M4.587 8.52c1.196 3.89 3.8 4.107 6.306 2.318.219-.156-.121.094-.634.471v.001c-.635.468-1.536 1.13-1.968 1.458-.694.525-.937 1.077-1.104 1.456-.168.38-.259.586-.648.421-2.622-1.111-2.163-6.814-1.952-6.125"/><path fill="#000" d="M15.699 12.768c.693.525.937 1.077 1.104 1.456.167.38.258.586.648.421 2.622-1.111 2.163-6.814 1.951-6.125-1.195 3.89-3.8 4.107-6.306 2.318-.22-.157.127.099.647.481.635.467 1.526 1.124 1.956 1.449"/><path fill="#000" d="M8.94 14.065c.464-.54.933-1.086 1.6-1.278.808-.233 1.45.457 1.465.473.086-.088.698-.68 1.455-.463.667.192 1.136.738 1.6 1.278.497.578.988 1.15 1.708 1.272.06.01.123.022.186.035a3.3 3.3 0 0 0 .804.082c.706-.034 1.599-.433 2.792-2.125.353-.5-.875 3.222-3.955 3.267-1.258.018-1.896-.67-2.476-1.294-.46-.496-.882-.951-1.547-.982-.454-.02-.552-.748-.572-.985-.022.248-.124.955-.572.975-.665.03-1.088.485-1.547.981-.58.625-1.218 1.313-2.476 1.295-3.08-.046-4.308-3.767-3.955-3.267 1.193 1.692 2.086 2.09 2.792 2.125.299.014.564-.037.804-.083l.186-.035c.72-.122 1.211-.693 1.708-1.271"/><path fill="#000" d="M10.952 15.254c.026.043.991 1.641 2.135.062.014-.02.011-.003-.001.056-.044.212-.2.97-.03 2.514.263 2.4-1.245 6.114-1.245 6.114s-1.106-3.707-.89-6.041c.17-1.827.036-2.674.031-2.705m2.826 2.003c.165 1.273.026 2.043-.194 3.257l-.1.56c-.137.79 2.814-2.373 3.946-4.258.042-.071.01-.047-.08.02-.306.227-1.287.957-2.26.106-.568-.497-.83-.768-1.13-1.08a24.857 24.857 0 0 0-.57-.577c-.116-.114-.049.129.063.53.109.39.26.93.325 1.441m-3.79-1.278c.16-.168.333-.346.57-.578.116-.113.048.129-.064.531-.108.39-.258.929-.325 1.441-.164 1.273-.025 2.044.194 3.257.032.177.066.362.1.56.138.79-2.813-2.373-3.945-4.258-.043-.07-.01-.047.079.02.307.228 1.288.957 2.26.106.569-.496.83-.768 1.13-1.08M5.92 4.084s.772 2.14 1.784 3.21c.263.278.44.481.583.646.455.523.574.66 2.082 1.608 0 0-1.646-.883-3.054-1.269C6 7.92 5.012 7.033 4.902 6.098 4.82 5.4 5.92 4.084 5.92 4.084m5.882 3.944c-.02 2.012-.04 4.134-.206 4.069-.076-2.042-.447-3.33-.761-4.42-.293-1.017-.537-1.861-.446-2.984-.125-1.007-.578-1.742-1.479-2.36.797-.266 1.459-.482 1.805-.2.346.284 1.286 1.23 1.16 2.772-.049.6-.06 1.839-.073 3.123"/></svg>
